svgs/light/diploma.svg

<svg xmlns="http://www.w3.org/2000/svg" viewBox="0 0 640 512"><!-- Font Awesome Pro 6.0.0-alpha2 by @fontawesome - https://fontawesome.com License - https://fontawesome.com/license (Commercial License) --><path d="M539.26 144H476.842C483.928 132.188 488 118.34 488 104C488 64.301 459.576 32 424.641 32C394.133 32 373.229 41.84 320 128.914C266.771 41.84 245.867 32 215.359 32C180.424 32 152 64.301 152 104C152 118.34 156.072 132.188 163.158 144H96C42.98 144 0 192.473 0 272S42.98 416 96 416L240 385.141V464C240 469.531 242.875 474.688 247.594 477.625C252.281 480.469 258.188 480.781 263.156 478.312L320 449.875L376.844 478.313C379.094 479.438 381.562 480 384 480C386.938 480 389.844 479.188 392.406 477.625C397.125 474.688 400 469.531 400 464V385.516L539.26 416C594.898 416 640 351.527 640 272C640 192.469 594.898 144 539.26 144ZM240 352.414L93.211 383.871C63.695 381.164 32 335.98 32 272C32 215.477 58.318 176 96 176H240V352.414ZM215.359 144C198.068 144 184 126.055 184 104S198.068 64 215.359 64C229.406 64 242.799 64.195 291.744 144H215.359ZM368 438.125L327.156 417.687C322.656 415.437 317.344 415.437 312.844 417.687L272 438.125V176H368V438.125ZM348.256 144C397.201 64.195 410.594 64 424.641 64C441.932 64 456 81.945 456 104S441.932 144 424.641 144H348.256ZM542.227 383.891L400 352.754V176H539.26C580.375 176 608 214.578 608 272C608 331.09 578.176 381.258 542.227 383.891Z"/></svg>

<svg xmlns="http://www.w3.org/2000/svg" viewBox="0 0 640 512"><!--! Font Awesome Pro 6.3.0 by @fontawesome - https://fontawesome.com License - https://fontawesome.com/license (Commercial License) Copyright 2023 Fonticons, Inc. --><path d="M539.3 144h-62.42C483.9 132.2 488 118.3 488 104c0-39.7-28.42-72-63.36-72C394.1 32 373.2 41.84 320 128.9C266.8 41.84 245.9 32 215.4 32C180.4 32 152 64.3 152 104c0 14.34 4.072 28.19 11.16 40H96c-53.02 0-96 48.47-96 128S42.98 416 96 416l144-30.86V464c0 5.531 2.875 10.69 7.594 13.62c4.688 2.844 10.59 3.156 15.56 .6875L320 449.9l56.84 28.44C379.1 479.4 381.6 480 384 480c2.938 0 5.844-.8125 8.406-2.375C397.1 474.7 400 469.5 400 464v-78.48L539.3 416C594.9 416 640 351.5 640 272C640 192.5 594.9 144 539.3 144zM240 352.4l-146.8 31.46C63.7 381.2 32 335.1 32 272c0-56.52 26.32-96 64-96h144V352.4zM215.4 144C198.1 144 184 126.1 184 104S198.1 64 215.4 64c14.05 0 27.44 .1953 76.38 80H215.4zM368 438.1l-40.84-20.44c-4.5-2.25-9.812-2.25-14.31 0L272 438.1V176h96V438.1zM348.3 144c48.95-79.8 62.34-80 76.38-80C441.9 64 456 81.95 456 104S441.9 144 424.6 144H348.3zM542.2 383.9L400 352.8V176h139.3C580.4 176 608 214.6 608 272C608 331.1 578.2 381.3 542.2 383.9z"/></svg>
